X:1420
L:1/4
Q:1/4=160
M:3/2
K:Ddor
 d f2 e d ^c | d f2 e d ^c | d A2 G F E | F3 E/F/ D2 | d f2 e d ^c | d f2 e d ^c | d _B A G F E | 
 D6 || e a2 g f e | f a2 g f e | f c2 _B A G | A3 G/A/ F2 | c f2 e d _B | d g2 f e ^c | 
 A d c _B A G | F6 | A d2 c _B2 | B e2 d ^c2 | d f2 e d ^c | d A2 G F E | F _B A G F E | D6 |]

